!!!COM: Martinů, Bohuslav (Jan)
!!!OTL: [T506_Mau-w11p23-24m61-69]
**kern	**dynam	**kern	**dynam	**kern	**dynam	**kern	**dynam
*grp:A	*	*grp:A	*	*grp:B	*	*grp:B	*
*part4	*part4	*part3	*part3	*part2	*part2	*part1	*part1
*staff4	*	*staff3	*	*staff2	*	*staff1	*
*I"Violoncello	*	*I"Viola	*	*I"Violin II	*	*I"Violin I	*
*I'Vc.	*	*I'Vla.	*	*I'Vln. II	*	*I'Vln. I	*
*ICstr	*	*ICstr	*	*ICstr	*	*ICstr	*
*Icello	*	*Iviola	*	*Ivioln	*	*Ivioln	*
*clefF4	*	*clefG2	*	*clefG2	*	*clefG2	*
*k[]	*	*k[]	*	*k[]	*	*k[]	*
*C:	*	*C:	*	*C:	*	*C:	*
*M5/4	*	*M5/4	*	*M5/4	*	*M5/4	*
=61	=61	=61	=61	=61	=61	=61	=61
!	!	!	!	!	!	!LO:TX:a:t=[[quarter]=92]	!LO:DY:t= %s dolce
4r	.	4r	.	2cc^ 2ee)	p	2.ggg	p
!	!LO:DY:t= %s espr. molto	!	!LO:DY:t= %s espr. molto	!	!	!	!
4G~	f	4g~	f	.	.	.	.
4G~	.	4g~	.	4g~^ 4dd	>	.	.
(8F^L 8A	.	(8f^L 8a	.	4cc~^ 4ee	] >	[2ggg	.
8GJ)	.	8gJ)	.	.	.	.	.
4G	.	4g	.	4a~^ 4gg	] > ]	.	.
=62	=62	=62	=62	=62	=62	=62	=62
*M6/4	*	*M6/4	*	*M6/4	*	*M6/4	*
8FL 8A	<	8fL 8a	<	4g^ 4dd	>	2.ggg]	.
8EJ 8B	.	8eJ 8b	.	.	.	.	.
4D^ 4c	[	4d^ 4cc	[	4cc^ 4ee	] >	.	.
(8EL 8B	.	(8eL 8b	.	4g^ 4dd	] >	.	.
8GJ)	.	8gJ)	.	.	.	.	.
4F^ 4A	.	4f^ 4a	.	4cc^ 4ee	] >	[2.ggg	.
2G	.	2g	.	4a^ 4gg	] >	.	.
.	.	.	.	4g^ 4dd	] > ]	.	.
=63	=63	=63	=63	=63	=63	=63	=63
*M5/4	*	*M5/4	*	*M5/4	*	*M5/4	*
!	!	!	!	!LO:TX:b:i:t=sempre cresc. poco a poco	!	!LO:TX:b:i:t=poco a poco cresc.	!
4D 4d	.	4d 4dd	.	8cc 8ee	.	2ggg]	.
.	.	.	.	4g 4dd	.	.	.
4E 4d	<	4e 4dd	<	.	.	.	.
.	.	.	.	8a 8gg	.	.	.
4G 4d	.	4g 4dd	.	4cc 4ee	.	[2.ggg^TT	.
(8DL 8c	[	(8dL 8cc	[	8gL 8dd	.	.	.
8AAJ)	.	8aJ)	.	8aJ 8gg	.	.	.
4G 4d	.	4g 4dd	.	4cc 4ee	.	.	.
=64	=64	=64	=64	=64	=64	=64	=64
*M3/4	*	*M3/4	*	*M3/4	*	*M3/4	*
(8GG^L 8A 8e	.	(8G^>L 8a 8ee	.	8g 8dd	<	2.gggTTT]	< [
8cJ)	.	8ccJ)	.	4cc 4ee	.	.	.
2G^ 2d	.	2g^ 2dd	.	.	.	.	.
.	.	.	.	8a 8gg	.	.	.
.	.	.	.	8bL 8ff	.	.	.
.	.	.	.	8aJ 8gg	[	.	.
!!LO:REH:t=65
=65	=65	=65	=65	=65	=65	=65	=65
!	!	!	!	!	!	!	!LO:DY:t= %s espr. molto
4AA^ 4E 4c	sfz	4A^> 4e 4cc	sfz	8ccL 8ee	mf <	4ggg~	f
.	.	.	.	8aJ 8ee	.	.	.
2GG^ [2D [2B	sfz	2B^> [2g [2dd	sfz	8cc 8ee	.	4aaa~	.
.	.	.	.	4g 4dd	.	.	.
.	.	.	.	.	.	[4ggg~	.
.	.	.	.	8a 8gg	.	.	.
=66	=66	=66	=66	=66	=66	=66	=66
2.D_ 2.B_	.	2.g_ 2.dd_	.	4cc 4ee	.	4ggg]	.
.	.	.	.	8gL 8dd	.	(8fff~L	.
.	.	.	.	8aJ 8gg	.	8eee~J)	.
.	.	.	.	4cc 4ee	[	4ddd	.
=67	=67	=67	=67	=67	=67	=67	=67
2D] 2B]	.	2g] 2dd]	.	8g^L 8dd	f	(8eeeL	.
.	.	.	.	8aJ 8gg	.	8cccJ)	.
.	.	.	.	8ccL 8ee	.	4ddd	<
.	ff	.	ff	8g^J 8dd	.	.	.
[4AA^ [4E [4c	sfz	4A^> [4e [4cc	sfz	8aL 8gg	.	[4ggg^	[
.	.	.	.	([8ccJ [8ee	.	.	.
=68	=68	=68	=68	=68	=68	=68	=68
4AA] 4E] 4c]	.	4e] 4cc]	.	8ccL] 8ee]	.	4ggg]	.
.	.	.	.	8gJ 8dd)	.	.	.
2GG^ [2D [2B	sfz	2B^> [2g [2dd	sfz	8dL 8cc	.	(4ggg^	.
.	.	.	.	8gJ 8dd	.	.	.
.	.	.	.	8aL 8gg	.	8fff~L	.
.	.	.	.	(8ccJ 8ee	.	8eee~J)	.
=69	=69	=69	=69	=69	=69	=69	=69
2.D_ 2.B_	.	2.g_ 2.dd_	.	8gL 8dd)	.	4ddd	.
.	.	.	.	8dJ 8cc	.	.	.
.	.	.	.	8gL 8dd	.	(8eeeL	.
.	<	.	<	8aJ 8gg	<	8cccJ)	<
.	.	.	.	(8ccL 8ee	.	(8ccc~L	.
.	[[	.	[[	8gJ 8dd)	[[	[8ddd~J)	[[
=	=	=	=	=	=	=	=
*-	*-	*-	*-	*-	*-	*-	*-
!!!system-decoration: [(s1,s2,s3,s4)]
!!!RDF**kern: > = above
!!!RDF**kern: < = below
!!!EED: Claudio de Freitas
!!!EEV: 2021/09/28
!!!EED2: Daniel Wright
!!!EEV2: 2022/02/16
